Newaita-dark/actions/22/edit-image-face-add.svg

<svg height="22" viewBox="0 0 22 22" width="22" xmlns="http://www.w3.org/2000/svg"><g fill="#e0e0e0"><path d="m10.914062 1.992188c-2.519531 0-4.546874 2.027343-4.546874 4.546874 0 2.519532 2.027343 4.546876 4.546874 4.546876 2.519532 0 4.550782-2.027344 4.550782-4.546876 0-2.519531-2.03125-4.546874-4.550782-4.546874zm0 1.816406c1.511719 0 2.730469 1.21875 2.730469 2.730468 0 1.511719-1.21875 2.730469-2.730469 2.730469-1.511718 0-2.726562-1.21875-2.726562-2.730469 0-1.511718 1.214844-2.730468 2.726562-2.730468zm0 0"/><path d="m7.726562 11.546875c-.089843 0-.183593.015625-.269531.042969-.605469.191406-1.703125.425781-2.710937.964844-1.007813.542968-2.011719 1.582031-2.011719 3.082031v1.363281h-.003906v1.363281c0 1.007813.808593 1.820313 1.816406 1.820313h8.1875v-1.820313h-7.277344c-.503906 0-.910156-.40625-.910156-.910156v-.453125h-.003906v-1.363281c0-.777344.359375-1.113281 1.058593-1.484375.613282-.332032 1.40625-.539063 2.109376-.75 2.195312.808594 4.214843.808594 6.410156 0 .039062.011718.078125.023437.117187.03125l2.167969-1.203125c-.792969-.324219-1.5625-.496094-2.042969-.644531-.085937-.027344-.175781-.039063-.265625-.039063-.117187 0-.230468.019531-.335937.0625-2.117188.847656-3.574219.847656-5.695313 0-.109375-.042969-.222656-.0625-.339844-.0625zm0 0"/><path d="m14.097656 16.089844h5.457032c.253906 0 .457031.203125.457031.453125v.910156c0 .253906-.203125.457031-.457031.457031h-5.457032c-.25 0-.453125-.203125-.453125-.457031v-.910156c0-.25.203125-.453125.453125-.453125zm0 0"/><path d="m17.738281 14.269531v5.457031c0 .253907-.203125.457032-.457031.457032h-.910156c-.25 0-.453125-.203125-.453125-.457032v-5.457031c0-.25.203125-.453125.453125-.453125h.910156c.253906 0 .457031.203125.457031.453125zm0 0"/></g></svg>

<svg xmlns="http://www.w3.org/2000/svg" xmlns:xlink="http://www.w3.org/1999/xlink" width="22px" height="22px" viewBox="0 0 22 22" version="1.1">
<g id="surface1">
     <defs>
  <style id="current-color-scheme" type="text/css">
   .ColorScheme-Text { color:#eeeeee; } .ColorScheme-Highlight { color:#424242; }
  </style>
 </defs>
<path style="fill:currentColor" class="ColorScheme-Text" d="M 10.914062 1.992188 C 8.394531 1.992188 6.367188 4.019531 6.367188 6.539062 C 6.367188 9.058594 8.394531 11.085938 10.914062 11.085938 C 13.433594 11.085938 15.464844 9.058594 15.464844 6.539062 C 15.464844 4.019531 13.433594 1.992188 10.914062 1.992188 Z M 10.914062 3.808594 C 12.425781 3.808594 13.644531 5.027344 13.644531 6.539062 C 13.644531 8.050781 12.425781 9.269531 10.914062 9.269531 C 9.402344 9.269531 8.1875 8.050781 8.1875 6.539062 C 8.1875 5.027344 9.402344 3.808594 10.914062 3.808594 Z M 10.914062 3.808594 "/>
     <defs>
  <style id="current-color-scheme" type="text/css">
   .ColorScheme-Text { color:#eeeeee; } .ColorScheme-Highlight { color:#424242; }
  </style>
 </defs>
<path style="fill:currentColor" class="ColorScheme-Text" d="M 7.726562 11.546875 C 7.636719 11.546875 7.542969 11.5625 7.457031 11.589844 C 6.851562 11.78125 5.753906 12.015625 4.746094 12.554688 C 3.738281 13.097656 2.734375 14.136719 2.734375 15.636719 L 2.734375 17 L 2.730469 17 L 2.730469 18.363281 C 2.730469 19.371094 3.539062 20.183594 4.546875 20.183594 L 12.734375 20.183594 L 12.734375 18.363281 L 5.457031 18.363281 C 4.953125 18.363281 4.546875 17.957031 4.546875 17.453125 L 4.546875 17 L 4.542969 17 L 4.542969 15.636719 C 4.542969 14.859375 4.902344 14.523438 5.601562 14.152344 C 6.214844 13.820312 7.007812 13.613281 7.710938 13.402344 C 9.90625 14.210938 11.925781 14.210938 14.121094 13.402344 C 14.160156 13.414062 14.199219 13.425781 14.238281 13.433594 L 16.40625 12.230469 C 15.613281 11.90625 14.84375 11.734375 14.363281 11.585938 C 14.277344 11.558594 14.1875 11.546875 14.097656 11.546875 C 13.980469 11.546875 13.867188 11.566406 13.761719 11.609375 C 11.644531 12.457031 10.1875 12.457031 8.066406 11.609375 C 7.957031 11.566406 7.84375 11.546875 7.726562 11.546875 Z M 7.726562 11.546875 "/>
     <defs>
  <style id="current-color-scheme" type="text/css">
   .ColorScheme-Text { color:#eeeeee; } .ColorScheme-Highlight { color:#424242; }
  </style>
 </defs>
<path style="fill:currentColor" class="ColorScheme-Text" d="M 14.097656 16.089844 L 19.554688 16.089844 C 19.808594 16.089844 20.011719 16.292969 20.011719 16.542969 L 20.011719 17.453125 C 20.011719 17.707031 19.808594 17.910156 19.554688 17.910156 L 14.097656 17.910156 C 13.847656 17.910156 13.644531 17.707031 13.644531 17.453125 L 13.644531 16.542969 C 13.644531 16.292969 13.847656 16.089844 14.097656 16.089844 Z M 14.097656 16.089844 "/>
     <defs>
  <style id="current-color-scheme" type="text/css">
   .ColorScheme-Text { color:#eeeeee; } .ColorScheme-Highlight { color:#424242; }
  </style>
 </defs>
<path style="fill:currentColor" class="ColorScheme-Text" d="M 17.738281 14.269531 L 17.738281 19.726562 C 17.738281 19.980469 17.535156 20.183594 17.28125 20.183594 L 16.371094 20.183594 C 16.121094 20.183594 15.917969 19.980469 15.917969 19.726562 L 15.917969 14.269531 C 15.917969 14.019531 16.121094 13.816406 16.371094 13.816406 L 17.28125 13.816406 C 17.535156 13.816406 17.738281 14.019531 17.738281 14.269531 Z M 17.738281 14.269531 "/>
</g>
</svg>
